X:17
T:Hills of Glenurchie
S:Bernie Waugh
R:Jig
M:6/8
L:1/8
K:Em
|:d|\
"Em"BGE EFE|BAB "G"d2B|"D"AFD DED|AFA "Em"ded|
"Em"BGE EFE|BAB "G"d2e|dBd "D"AFD|"Em"EFE E2:|
|:B|\
"Em"efe edB|"C"efg "tr"f2e|"D"ded dAB|"Bm"def fed|
"Em"efe edB|"C"efg "tr"f2e|"D"dBd AFD|"Em"EFE E2:|

